X:629
T:Ronde - Mon Amy
T:Companions
C:Tielman Susato
M:2/2
L:1/4
S:Colin Hume's website,  colinhume.com  - chords can also be printed below the stave.
Q:1/2=104
%%MIDI ratio 3 1
K:C
P:A
|: "Dm"DD AA | "Am"cB/A/ "Em"B "F"A | "C"c>B "F"A "Em"G | "Am"A>G "F"F"Am"E :|
P:B
|: "F"A/G/A/B/ "Am"c>B | "Am"AG "Dm"FD | "C"G>E "Dm"FD | "A7"A/G/F/E/ "Dm"F2 :|
P:C
|: "Bb"DD "C"E/F/G/A/ | "Dm"F>D "C"E/F/G/A/ | "Bb"F>D "C"EE | "F"A>F "C"GE | "Dm"DD A>F | "A7"GE "Dm"D2 :|

